X:1
T:Title
%%score [ ( 1 2 ) ( 3 4 ) ] { ( 5 6 ) | 7 }
L:1/8
Q:1/4=120
M:4/4
K:A
V:1 treble nm="Midi_74"
V:2 treble 
V:3 bass nm="Midi_74"
V:4 bass 
V:5 treble nm="Org."
V:6 treble 
V:7 bass 
V:1
 (e6 c2) | A4 =G4 |{=G} F8 || A8 | c4 (c2 f2) | e4 ^d4 | e8 || (B6 G2) | E4 D4 |{D} C8 || F8 | %11
 A4 (A2 d2) |"^William Henry Havergal\n(1793-1870)" c4 B4 | A8 |] %14
V:2
 C8 | E4 C4 | D8 || E8 | E4 F4 | G4 A4 | G8 || E8 | E4 B,4 |{B,} A,8 || D8 | E4 A4 | A4 G4 | A8 |] %14
V:3
 A,8 | A,4 A,4 | A,8 || A,8 | A,4 A,4 | B,4 B,4 | B,8 || G,8 | B,4 G,4 | A,8 || A,8 | A,4 D4 | %12
 E4 D4 | C8 |] %14
V:4
 A,,8 | C,4 A,,4 | D,8 || C,8 | A,,4 F,4 | B,4 B,,4 | E,8 || E,8 | G,4 E,4 | A,8 || D,8 | C,4 F,4 | %12
 E,4 E,4 | A,,8 |] %14
V:5
 [ce]6 c2 | A4 =G4 |{=G} F8 || A8 | c4 c2 f2 | e4 ^d4 | e8 || [GB]6 G2 | E4 D4 |{D} C8 || F8 | %11
 A4 A2 d2 | c4 [GB]4 | A8 |] %14
V:6
 [EA]8 | E4 [CE]4 | D8 || E8 | [EA]4 [FA]4 | [GB]4 [FA]4 | [EG]8 || E8 | B,4 [G,B,]4 |{B,} A,8 || %10
 [A,D]8 | E4 [DA]4 | [EA]4 E2 D2 | [CA]8 |] %14
V:7
 A,,8 | C,4 A,,4 | [D,A,]8 || [C,A,]8 | A,,4 F,4 | B,4 B,,4 | E,8 || E,8 | G,4 E,4 | A,8 || D,8 | %11
 C,4 F,4 | E,4 E,4 | A,,8 |] %14

